X: 17238
T: Herb Reid's
R: polka
M: 2/4
K: Dmajor
|:Af fe|dc BA|Be Bc|dc BA|
Af fe|dc BA|Be Bc|d2 d2:|
|:DF AF|EF GB|AB cd|ed ef|
DF AF|EF GB|AB cA|d2 d2:|

